!!!COM: Vivaldi, Antonio Lucio
!!!CDT: 1678/03/04-1741/08/28
!!!OPR: 12 Sonatas for Violin and Basso continuo
!!!OTL: Sonata in A minor, op. @{OPS}, no. @{ONM} (@{SCT})
!!!OPS: 2
!!!ONM: 12
!!!OMV: 4. Allemanda
!!!SCT: RV 32
!!!SCA: Antonio Vivaldi: Thematisch-systematisches Verzeichnis seiner Werke (Ryom-Verzeichnis)
!!!OMD: Allegro
!!!key: a
**kern	**fb	**kern
*part2	*	*part1
*staff2	*	*staff1
*ICklav	*	*ICstr
*Icemba	*	*Ivioln
*I"Basso continuo	*	*I"Violino
*I'bc	*	*I'v
*>[A,A,B,B]	*>[A,A,B,B]	*>[A,A,B,B]
*>norep[A,B]	*>norep[A,B]	*>norep[A,B]
*>A	*>A	*>A
*clefF4	*	*clefG2
*k[]	*	*k[]
*a:	*	*a:
*M4/4	*	*M4/4
*met(c)	*	*met(c)
*MM100	*	*MM100
8r	.	8ee\
=1	=1	=1
4A\	.	8cc\L
.	.	8cc\J
4AA/	.	8cc\LT
.	.	16b\L
.	.	16a\JJ
4E\	#	16g#X/LL
.	.	16f#X/J
.	.	8e/J
4r	.	8r
.	.	16b\LL
.	.	16cc\JJ
=2	=2	=2
4E\	.	(16dd/LL
.	.	16g#X/
.	.	16e/)
.	.	16g#y/JJ
4G#X\	5	16b\LL
.	.	16dd\
.	.	16ee\
.	.	16dd\JJ
8A\L	.	(16cc\LL
.	.	16b\J
8B\J	.	8a\J)
8c\L	.	16r
.	.	16ee\LL
8A\J	.	16aa\
.	.	16gg\JJ
=3	=3	=3
8d\L	.	(16ff#X\LL
.	.	16gg#X\
8A\J	.	16aa\)
.	.	16cc\JJ
8e\L	5 4	(16e\LL
.	.	16b\
8E\J	#	16aa\)
.	.	16gg#y\JJ
8A\L	.	8aa\L
8B\J	.	8a\J
8c\L	.	8r
8A\J	.	16aa\LL
.	.	16bb\JJ
!!LO:LB:g=original
=4	=4	=4
8E/L	6	(16ccc\LL
.	.	16ggn\)
8C/J	.	(16aa\
.	.	16ee\JJ)
8D/L	.	(16ff\LL
.	.	16aa\
8BB/J	6	16gg\)
.	.	16ff\JJ
8C\L	.	(16g\LL
.	.	16cc\
8c\J	.	16ee\)
.	.	16ff\JJ
8B\L	6	16gg\LL
.	.	16b\
8E\J	6	16cc\
.	.	16e\JJ
=5	=5	=5
8D/L	7	16f/LL
.	.	16cc/
8C/J	.	16e/
.	.	16cc/JJ
8G/L	4	(16G/LL
.	.	16d/
8GG/J	3	16cc/)
.	.	16b/JJ
4C/	.	(16c/LL
.	.	16g/
.	.	16cc/)
.	.	16dd/JJ
4r	.	16ee\LL
.	.	16ff\
.	.	16gg\
.	.	16cc#X\JJ
=6	=6	=6
4.C#X/	6	(16a\LL
.	.	16cc#X\
.	7-r	16ee\
.	.	16bb-X\JJ)
.	.	8.aa\Lt
8C#y/	6	.
.	.	(16gg\Jk
8D\L	.	8.ff\L)
8E\J	.	.
.	.	16ee\Jk
8F\L	.	16dd\LL
.	.	16cc#y\
8D\J	.	16b\
.	.	16a\JJ
=7	=7	=7
4.BB/	6	(16g\LL
.	.	16b\
.	.	16dd\
.	.	16aa\JJ)
.	.	8.gg\LT
8BB/	5	.
.	.	(16ff\Jk
8Cn/L	.	8.ee\L)
8D/J	.	.
.	.	16dd\Jk
8E/L	.	16cc/LL
.	.	16b/
8C/J	.	16a/
.	.	16g/JJ
!!LO:LB:g=original
=8	=8	=8
4.AA/	.	(16f\LL
.	.	16a\
.	.	16cc\
.	.	16gg\JJ)
.	.	8.ff\LT
8A\	6	.
.	.	(16ee\Jk
8B\L	5	8.dd\L)
8c\J	.	.
.	.	16cc\Jk
8d\L	6	16b/LL
.	.	16a/
8B\J	6#/	16g#X/
.	.	16f#X/JJ
=9	=9	=9
8G#X\L	6	(16e/LL
.	.	16g#X/
8E\J	.	16b/)
.	.	16dd/JJ
8G#y\L	.	16ee\LL
.	.	16dd\
8E\J	.	16cc\
.	.	16b\JJ
8A\L	.	(16a\LL
.	.	16cc\
8c\J	.	16ee\)
.	.	16aa\JJ
8f\L	6	(16dd\LL
.	.	16ff\
8d\J	.	16aa\)
.	.	16ddd\JJ
=10	=10	=10
8G#X\L	6	(16ee\LL
.	.	16gg#X\
8E\J	.	16bb\)
.	.	16ddd\JJ
8G#y\L	.	16eee\LL
.	.	16ddd\
8E\J	.	16ccc\
.	.	16bb\JJ
8AA\L	.	(16ccc\LL
.	.	16ddd\
8A\J	.	16ccc\)
.	.	16bb\JJ
8c\L	.	16aa\LL
.	.	16gg#y\
8A\J	.	16ff#X\
.	.	16ee\JJ
=11	=11	=11
8d#X\L	6	(16b\LL
.	.	16cc#X\
8B\J	.	16dd#X\)
.	.	16ee\JJ
8d#y\L	.	16ff#X\LL
.	.	16gg\
8B\J	.	16aa\
.	.	16bb\JJ
8e\L	.	(16gg\LL
.	.	16bb\
8E\J	.	16eee\)
.	.	16gg\JJ
8B\L	#	(16b\LL
.	.	16ff#y\
8BB\J	.	16eee\)
.	.	16ddd#X\JJ
!!LO:PB:g=original
=12	=12	=12
4E\	.	16eee\LL
.	.	16bb\
.	.	16gg\
.	.	16bb\JJ
4r	.	16ee\LL
.	.	16b\
.	.	16g\
.	.	16b\JJ
4.E\	.	4.e/
=:|!|:	=:|!|:	=:|!|:
*>B	*>B	*>B
8r	.	8bb\
=13	=13	=13
8G#X\L	6	(16ee\LL
.	.	16gg#X\
8E\J	.	16bb\)
.	.	16ddd\JJ
8G#y\L	.	16eee\LL
.	.	16ddd\
8E\J	.	16ccc\
.	.	16bb\JJ
8A\L	.	8.ccc\LT
8B\J	.	.
.	.	16bb\Jk
8c\L	.	16aa\LL
.	.	16gg\
8A\J	.	16ff#X\
.	.	16ee\JJ
=14	=14	=14
8F#X\L	6	(16dd\LL
.	.	16ff#X\
8D\J	.	16aa\)
.	.	16ccc\JJ
8F#y\L	.	16ddd\LL
.	.	16ccc\
8D\J	.	16bb\
.	.	16aa\JJ
8G\L	.	8.bb\Lt
8A\J	.	.
.	.	16aa\Jk
8B\L	.	16gg\LL
.	.	16ff#X\
8G\J	.	16ee\
.	.	16dd\JJ
=15	=15	=15
8E\L	6	(16cc\LL
.	.	16ee\
8C\J	.	16gg\)
.	.	16bb-X\JJ
8E\L	6 5-r	16ccc\LL
.	.	16bb-y\
8C\J	.	16aa\
.	.	16gg\JJ
8F\L	.	8.aa\Lt
8G\J	.	.
.	.	16gg\Jk
8A\L	.	16ff\LL
.	.	16ee\
8F\J	.	16dd\
.	.	16cc\JJ
!!LO:LB:g=original
=16	=16	=16
8D\L	.	(16bn\LL
.	.	16dd\
8d\J	.	16ff\)
.	.	16aa\JJ
8B\L	6	16gg\LL
.	.	16ff\
8G\J	.	16ee\
.	.	16dd\JJ
8c\L	.	(16ee\LL
.	.	16ff\
8B\J	.	16gg\)
.	.	16b\JJ
8A\L	.	(16cc\LL
.	.	16ee\
8F\J	.	16dd\)
.	.	16cc\JJ
=17	=17	=17
8G\L	6	(16g/LL
.	.	16b/
8E\J	.	16cc/)
.	.	16e/JJ
8A\L	6	(16f\LL
.	.	16ee\
8F\J	.	16dd\)
.	.	16cc\JJ
8G\L	.	(16g/LL
.	.	16b/
8C\J	.	16cc/)
.	.	16e/JJ
8G/L	.	(16G/LL
.	.	16d/
8GG/J	.	16cc/)
.	.	16b/JJ
=18	=18	=18
4C/	.	(16c/LL
.	.	16g/
.	.	16cc/)
.	.	(16dd/JJ
4r	.	16ee\LL
.	.	16ff\
.	.	16gg\
.	.	16aa\JJ)
4.C#X/	7-r	[4bb-X\
.	.	16bb-y\LL]
.	.	(16gg\
8C#y/	6	16aa\
.	.	16ee\JJ)
=19	=19	=19
8D/L	.	(16ff\LL
.	.	16cc#X\
8DD/J	.	16dd\)
.	.	16f\JJ
8A\L	5 4	(16A/LL
.	.	16e/
8AA\J	#	16dd/
.	.	16cc#y/JJ)
4D\	.	(16dd\LL
.	.	16a\
.	.	16dd\
.	.	16ee\JJ
4r	.	16ff#X\LL
.	.	16gg\
.	.	16aa\
.	.	16bbn\JJ)
!!LO:LB:g=original
=20	=20	=20
4.D#X\	7nr	8.ccc\L
.	.	(16bb\Jk
.	6	16aa\LL
.	.	16gg\
8D#y\	.	16ff#X\
.	.	16ee\JJ)
8E\L	.	(16b\LL
.	.	16ee\
8A\J	6#/ 5	16ff#y\)
.	.	16ee\JJ
8B\L	5#| 4	(16b\LL
.	.	16ee\
8BB\J	#	16ff#y\)
.	.	16dd#X\JJ
=21	=21	=21
8E\	.	(16ee\LL
.	.	16ffn\
8r	.	16gg\)
.	.	16cc#X\JJ
8C#X/	6 5	16a\LL
.	.	16gg\
8r	.	16aa\
.	.	16gg\JJ
8D\	.	(16dd\LL
.	.	16ee\
8r	.	16ff\)
.	.	16b\JJ
8BB/	6 5	16g\LL
.	.	16ff\
8r	.	16gg\
.	.	16ff\JJ
=22	=22	=22
8C/	.	(16cc\LL
.	.	16dd\
8r	.	16ee\)
.	.	16a\JJ
8AA/	6 5	16f\LL
.	.	16ee\
8r	.	16ff\
.	.	16ee\JJ
8BB/	.	(16b\LL
.	.	16cc\
8r	.	16dd\)
.	.	16b\JJ
8GG#X/	6	(16e/LL
.	.	16g#X/
8r	.	16b/)
.	.	16ee/JJ
=23	=23	=23
4AA/	.	(16A/LL
.	.	16c/
.	.	16e/)
.	.	16g/JJ
4C#X/	6	16a/LL
.	.	16g/
.	.	16f/
.	.	16e/JJ
4D\	.	(16d/LL
.	.	16f/
.	.	16a/)
.	.	16cc/JJ
4F\	6	16dd\LL
.	.	16cc\
.	.	16b\
.	.	16a\JJ
!!LO:LB:g=original
=24	=24	=24
4GG#X/	6	(16e/LL
.	.	16g#X/
.	.	16b/)
.	.	16dd/JJ
4G#X\	.	16ee\LL
.	.	16dd\
.	.	16cc\
.	.	16b\JJ
4A\	.	(16a\LL
.	.	16cc\
.	.	16ee\)
.	.	16ggn\JJ
4C#X/	6	16aa\LL
.	.	16gg\
.	.	16ff\
.	.	16ee\JJ
=25	=25	=25
4D\	.	(16dd\LL
.	.	16ff\
.	.	16aa\)
.	.	16ccc\JJ
4F\	.	16ddd\LL
.	.	16ccc\
.	.	16bb\
.	.	16aa\JJ
4GG#X/	6	(16ee\LL
.	.	16gg#X\
.	.	16bb\)
.	.	16ddd\JJ
4G#X\	.	16eee\LL
.	.	16ddd\
.	.	16ccc\
.	.	16bb\JJ
=26	=26	=26
8A\L	.	16ccc\LL
.	.	16ee\
8AA\J	.	16aa\
.	.	16cc\JJ
8e\L	#	(16e\LL
.	.	16b\
8E\J	.	16aa\)
.	.	16gg#X\JJ
8AA/L	#	(16A/LL
.	.	16c#y/
8C#X/J	.	16e/)
.	.	16a/JJ
8D\L	.	(16d/LL
.	.	16f/
8F\J	.	16a/)
.	.	16dd/JJ
=27	=27	=27
8GG#X\L	6	(16e/LL
.	.	16g#X/
8G#X\J	.	16b/)
.	.	16ee/JJ
8A\L	#	(16a\LL
.	.	16cc#y\
8C#X\J	.	16ee\)
.	.	16aa\JJ
8D\L	.	(16dd\LL
.	.	16ff\
8F\J	.	16aa\)
.	.	16ddd\JJ
8GG#y/L	6	16ee\LL
.	.	16gg#X\
8EE/J	.	16bb\
.	.	16eee\JJ
!!LO:LB:g=original
=28	=28	=28
8AA\L	.	16ccc\LL
.	.	16aa\
8A\J	.	16ccc\
.	.	16eee\JJ
8G#X\L	6	16bb\LL
.	.	16gg#X\
8E\J	.	16bb\
.	.	16eee\JJ
8AA\L	.	16ccc\LL
.	.	16aa\
8A\J	.	16ccc\
.	.	16eee\JJ
8G#y\L	6	16bb\LL
.	.	16gg#y\
8E\J	.	16bb\
.	.	16eee\JJ
=29	=29	=29
8AA\L	.	16ccc\LL
.	.	16aa\
8A\J	.	16ccc\
.	.	16eee\JJ
8G#X\L	6	16bb\LL
.	.	16gg#X\
8E\J	.	16bb\
.	.	16eee\JJ
8AA\L	.	16ccc\LL
.	.	16aa\
8A\J	.	16ccc\
.	.	16eee\JJ
8G#y\L	6	16bb\LL
.	.	16gg#y\
8E\J	.	16bb\
.	.	16eee\JJ
=30	=30	=30
8A\L	.	16ccc\LL
.	.	16ee\
8AA\J	.	16aa\
.	.	16cc\JJ
8e\L	#	(16e\LL
.	.	16b\
8E\J	.	16aa\)
.	.	16gg#X\JJ
4AA/	.	16aa\LL
.	.	16ee\
.	.	16aa\
.	.	16ee\JJ
4r	.	(16cc\LL
.	.	16dd\
.	.	16ee\)
.	.	16cc\JJ
=31	=31	=31
4AA/	.	16a/LL
.	.	16e/
.	.	16a/
.	.	16e/JJ
4r	.	(16c/LL
.	.	16d/
.	.	16e/)
.	.	16c/JJ
4.AA/;	.	4.A/;
=:|!	=:|!	=:|!
*-	*-	*-
!!!SMS: RV 32 / Estienne Roger, Amsterdam [facs.]
!!!ENC: Fran Bennion; rev. 06/21 E. Correia
!!!END: 2005/01/04
!!!ONB: Converted from MuseData with musedata2hum on Sat May 11 12:07:53 2024
!!!YEM: (C) 2005, 2005 Center for Computer Assisted Research in the Humanities.
!!!system-decoration: [(s1,s2)]
!!!URL-info: https://wiki.ccarh.org/wiki/MuseData:_Antonio_Vivaldi#Op._2:_Sonate_a_violino_e_basso_per_il_cembalo
!!!URL-pdf: https://pdf.musedata.org/vivaldi-op02-no12.pdf#page=4 MuseData edition
!!!URL-pdf: http://conquest.imslp.info/files/imglnks/usimg/b/b7/IMSLP99075-PMLP183164-Vivaldi_-_Sonatas_Op2.pdf#page=46 Estienne Roger Amsterdam: Estienne Roger, No.2, n.d.[1711].
!!!URL-youtube: https://www.youtube.com/watch?v=SiijZmW9jKM&t=4195s L'Arte dell'Arco
!!!title: @{OTL}, mov. @{OMV}
!!!filter-chint: chint -mid
!!!ONB: Some accidental errors to be fixed in this score.
!!!EEV: 2024/05/11
!!!source-file: https://bitbucket.org/musedata/vivaldi/src/master/roger/op2/no12/stage2/04/01
!!!source-file: https://bitbucket.org/musedata/vivaldi/src/master/roger/op2/no12/stage2/04/02
